icon/pk/rock.svg

<svg viewBox="0 0 48 48" fill="none" xmlns="http://www.w3.org/2000/svg" height="1em" width="1em">
  <path d="M23.5 20.4998C22.3462 20.4998 19.1521 20.3312 15.1138 24.9463C12.7115 27.6919 12.2869 31.0329 12.4644 33.3563C12.5487 34.4608 13.6689 35.0696 14.6977 34.659C15.4421 34.3619 16.2574 33.9912 16.8445 33.5998C18.5752 32.446 17.9983 31.2922 18.5752 29.5615C19.1521 27.8308 21.4597 26.677 23.7673 27.2539C26.0748 27.8308 26.957 29.583 27.2286 31.2922C27.5 32.9999 26.5 34.9999 24.3442 35.9074C21.9663 36.9084 20.8828 35.9074 17.9983 35.3305C16.4951 35.0299 14.992 36.3448 14.1267 37.2981C13.6367 37.8379 13.5842 38.6235 14.0092 39.2157C14.2979 39.6179 14.6703 40.0792 15.1138 40.5226C16.2676 41.6764 20.8828 45.1378 25.498 44.5609C30.1131 43.984 34.1514 40.5226 35.8821 36.4843C37.6128 32.446 37 26.9999 33 23.9999" stroke="black" stroke-width="4" stroke-linecap="round" stroke-linejoin="round"/>
  <path d="M33.0005 23.9998L23.1283 4.24016C22.8984 3.78013 22.3524 3.56306 21.9065 3.81927C20.8655 4.41745 19.6474 5.54195 20.0432 7.28675C20.5537 9.53717 25.5812 27.0483 27 29.9998" stroke="black" stroke-width="4" stroke-linecap="round" stroke-linejoin="round"/>
  <path d="M36 27L35.0522 7.69008C35.0277 7.19096 34.637 6.77864 34.1383 6.81033C32.9368 6.88668 31.3235 7.35813 30.913 9.11686C30.3885 11.3641 30.0139 14.7253 30 18" stroke="black" stroke-width="4" stroke-linecap="round" stroke-linejoin="round"/>
</svg>

<svg width="48" height="48" fill="none" xmlns="http://www.w3.org/2000/svg"><path d="M23.5 20.5c-1.154 0-4.348-.169-8.386 4.446-2.403 2.746-2.827 6.087-2.65 8.41.085 1.105 1.205 1.714 2.234 1.303.744-.297 1.56-.668 2.146-1.06 1.731-1.153 1.154-2.307 1.731-4.037.577-1.731 2.885-2.885 5.192-2.308 2.308.577 3.19 2.329 3.462 4.038C27.5 33 26.5 35 24.344 35.907c-2.378 1.001-3.461 0-6.346-.576-1.503-.301-3.006 1.014-3.871 1.967a1.514 1.514 0 0 0-.118 1.918c.289.402.661.863 1.105 1.307 1.154 1.153 5.769 4.615 10.384 4.038s8.653-4.038 10.384-8.077C37.612 32.446 37 27 33 24" stroke="#000" stroke-width="4" stroke-linecap="round" stroke-linejoin="round"/><path d="M33 24 23.129 4.24c-.23-.46-.776-.677-1.221-.42-1.041.597-2.26 1.722-1.864 3.467C20.553 9.537 25.581 27.048 27 30" stroke="#000" stroke-width="4" stroke-linecap="round" stroke-linejoin="round"/><path d="m36 27-.948-19.31c-.024-.499-.415-.911-.914-.88-1.201.077-2.814.548-3.225 2.307-.524 2.247-.9 5.608-.913 8.883" stroke="#000" stroke-width="4" stroke-linecap="round" stroke-linejoin="round"/></svg>
